.storybook/public/story-assets/logo-svg_12-12_mobile_light.svg

<svg xmlns="http://www.w3.org/2000/svg" width="327" height="310" fill="none"><path fill="#262626" fill-rule="evenodd" d="M84.46 33h-8v19h8zm2 19h69.49799999999999c-.521-10.581-9.265-19-19.975-19H86.46zm69.498 2H86.46v19h49.523c10.71 0 19.454-8.419 19.975-19M84.46 73V54h-8v19zm-10-19H36c.521 10.581 9.265 19 19.975 19H74.46zm0-2V33H55.975C45.265 33 36.521 41.419 36 52h38.46M84.547 105H67.374l8.586 8.586zm-20.001 0H53.942a8 8 0 0 0-8 8v24c0 1.854.63 3.56 1.688 4.916L74.546 115zm-15.5 38.328A7.97 7.97 0 0 0 53.943 145h50.604L75.96 116.415zM107.375 145h30.642a8 8 0 0 0 8-8v-24a8 8 0 0 0-8-8h-50.64l-10.001 10zM94.654 178H65.942c-10.667 0-19.383 8.35-19.969 18.87h48.68zM45.96 198.87c.456 10.642 9.228 19.13 19.982 19.13h28.712v-19.13zM96.654 218h29.362c10.755 0 19.526-8.488 19.982-19.13H96.654V218m49.331-21.13c-.586-10.52-9.302-18.87-19.969-18.87H96.654v18.87h49.331M244.268 33h-10.694a8 8 0 0 0-8 8v10.87h18.694zm-18.694 20.87V65a8 8 0 0 0 8 8h10.694V53.87zM246.268 73h11.306a8 8 0 0 0 8-8V53.87h-19.306V73m19.306-21.13V41a8 8 0 0 0-8-8h-11.306v18.87zM250.036 107.223a5.7 5.7 0 0 0-.72-1.536 4.7 4.7 0 0 0-1.086-1.175 4.4 4.4 0 0 0-1.441-.731 6 6 0 0 0-1.775-.254q-1.723 0-3.07.879t-2.12 2.584q-.762 1.694-.762 4.13 0 2.457.762 4.163.762 1.704 2.12 2.594 1.358.879 3.153.879 1.63 0 2.819-.635a4.45 4.45 0 0 0 1.849-1.801q.618-1.124.646-2.615h-4.927v-3.072h8.677v2.606q0 2.785-1.17 4.818a8.04 8.04 0 0 1-3.216 3.135q-2.047 1.09-4.699 1.091-2.955 0-5.189-1.345-2.224-1.356-3.477-3.844-1.243-2.5-1.243-5.931 0-2.627.731-4.692.74-2.065 2.068-3.506a8.8 8.8 0 0 1 3.111-2.202q1.786-.763 3.884-.763 1.776 0 3.31.53a8.7 8.7 0 0 1 2.726 1.482 8.135 8.135 0 0 1 2.986 5.211zm-49.962-6.926v21.69h3.874v-7.329h4.093q2.475 0 4.166-.922 1.692-.932 2.559-2.552.866-1.62.866-3.707 0-2.065-.866-3.685-.856-1.632-2.538-2.563-1.67-.932-4.135-.932zm3.874 11.13h3.571q1.441 0 2.36-.508a3.2 3.2 0 0 0 1.357-1.398q.45-.89.449-2.044 0-1.154-.449-2.033-.438-.88-1.368-1.367-.918-.497-2.37-.497h-3.55zm10.689 10.56h4.135l1.768-5.349h8.04l1.772 5.349h4.135l-7.539-21.69h-4.783zm12.897-8.505-2.894-8.737h-.167l-2.889 8.737zm29.784-13.185v21.69h13.992v-3.294h-10.118v-5.92h9.314v-3.294h-9.314v-5.889h10.035v-3.293zm6.152 26.42a8.7 8.7 0 0 1 2.986.551q1.462.53 2.631 1.737 1.17 1.196 1.859 3.209t.689 4.977q.01 2.797-.585 4.999-.584 2.192-1.681 3.707t-2.641 2.309q-1.546.794-3.477.794-2.026 0-3.592-.805a6.8 6.8 0 0 1-2.517-2.203q-.96-1.398-1.18-3.198h3.811q.293 1.292 1.191 2.054.908.752 2.287.752 2.224 0 3.424-1.959 1.201-1.96 1.201-5.444h-.146a5.5 5.5 0 0 1-1.326 1.61 6 6 0 0 1-1.848 1.027 6.5 6.5 0 0 1-2.172.361q-1.88 0-3.383-.911a6.6 6.6 0 0 1-2.37-2.5q-.867-1.589-.878-3.632 0-2.119.961-3.802a7 7 0 0 1 2.704-2.669q1.733-.985 4.052-.964m.01 3.177q-1.127 0-2.036.561a3.97 3.97 0 0 0-1.42 1.504q-.512.943-.512 2.108.01 1.155.512 2.097a3.96 3.96 0 0 0 1.389 1.493q.887.55 2.025.551.846 0 1.577-.328a3.9 3.9 0 0 0 1.274-.911q.553-.594.856-1.345.313-.752.303-1.589 0-1.112-.522-2.054a4.06 4.06 0 0 0-1.41-1.515q-.887-.572-2.036-.572m-10.185 4.438h-3.905a5 5 0 0 0-.616-1.727 4.6 4.6 0 0 0-1.117-1.292 4.7 4.7 0 0 0-1.525-.794 5.9 5.9 0 0 0-1.827-.275q-1.744 0-3.091.889-1.347.88-2.109 2.584-.762 1.695-.762 4.141 0 2.49.762 4.194.772 1.695 2.109 2.563 1.347.858 3.08.858.962 0 1.796-.254a4.9 4.9 0 0 0 1.514-.773 4.5 4.5 0 0 0 1.139-1.25 4.8 4.8 0 0 0 .647-1.694l3.905.021a8.6 8.6 0 0 1-.95 2.902 8.5 8.5 0 0 1-1.89 2.393 8.7 8.7 0 0 1-2.736 1.61q-1.566.572-3.477.572-2.819 0-5.033-1.324-2.213-1.324-3.487-3.823-1.274-2.5-1.274-5.995 0-3.506 1.284-5.994 1.284-2.5 3.498-3.823 2.214-1.324 5.012-1.324 1.786 0 3.321.508a8.5 8.5 0 0 1 2.735 1.494 7.9 7.9 0 0 1 1.974 2.393q.783 1.408 1.023 3.22m29.457-7.319h-8.019v21.69h3.874v-7.943h3.942l4.202 7.943h4.323l-4.625-8.587q.209-.084.407-.182 1.69-.837 2.558-2.361.877-1.536.877-3.623 0-2.075-.867-3.632-.855-1.567-2.537-2.436-1.67-.869-4.135-.869m-4.145 10.485h3.571q1.441 0 2.36-.402.918-.413 1.357-1.197.449-.794.449-1.949 0-1.154-.449-1.969-.448-.827-1.368-1.25-.918-.435-2.37-.434h-3.55zm-4.07-37.258h15.927v21.746h-15.927zm-42.88 26.717h-31.548v21.747h31.548zM211.074 177.14a8.004 8.004 0 0 0-6.5 7.86v11h6.5zm-6.5 20.86v11a8.004 8.004 0 0 0 6.5 7.86V198zm8.5 19h23.5a8 8 0 0 0 8-8v-11h-31.5zm31.5-21v-11a8 8 0 0 0-8-8h-23.5v19zM271.074 177h-16.5a8 8 0 0 0-8 8v1h24.5zm-24.5 11v21a8 8 0 0 0 8 8h16.5v-29zm26.5 29h5.5a8 8 0 0 0 8-8v-21h-13.5zm13.5-31v-1a8 8 0 0 0-8-8h-5.5v9zM81.168 251.583A19.93 19.93 0 0 0 76 265c0 5.097 1.907 9.749 5.046 13.281l13.41-13.411zm1.415-1.415 13.287 13.288 13.411-13.41A19.93 19.93 0 0 0 96 245c-5.163 0-9.87 1.956-13.417 5.168m28.125 1.279L97.284 264.87l13.493 13.493.055.054A19.92 19.92 0 0 0 116 265a19.93 19.93 0 0 0-5.292-13.553m-1.291 28.385-.054-.055-13.493-13.493-13.423 13.424A19.93 19.93 0 0 0 96 285c5.163 0 9.869-1.956 13.417-5.168" clip-rule="evenodd"/></svg>

<svg width="327" height="310" viewBox="0 0 327 310" fill="none" xmlns="http://www.w3.org/2000/svg">
<path fill-rule="evenodd" clip-rule="evenodd" d="M84.4604 33H76.4604V52H84.4604V33ZM86.4604 52H115.96H116.96H155.958C155.437 41.4189 146.693 33 135.983 33H86.4604V52ZM155.958 54H116.96H115.96H86.4604V73H135.983C146.693 73 155.437 64.5811 155.958 54ZM84.4604 73V54H76.4604V73H84.4604ZM74.4604 54H73.9604H36C36.521 64.5811 45.2651 73 55.9754 73H74.4604V54ZM74.4604 52V33H55.9754C45.2651 33 36.521 41.4189 36 52H73.9604H74.4604Z" fill="#262626"/>
<path fill-rule="evenodd" clip-rule="evenodd" d="M84.5466 105H67.3743L75.9604 113.586L84.5466 105ZM64.5458 105H53.9419C49.5236 105 45.9419 108.582 45.9419 113V137C45.9419 138.854 46.5723 140.56 47.6303 141.916L74.5462 115L64.5458 105ZM49.0469 143.328C50.3999 144.376 52.098 145 53.9419 145H104.546L75.9604 116.415L49.0469 143.328ZM107.374 145H138.016C142.435 145 146.016 141.418 146.016 137V113C146.016 108.582 142.435 105 138.016 105H87.3751L77.3747 115L107.374 145Z" fill="#262626"/>
<path fill-rule="evenodd" clip-rule="evenodd" d="M94.6539 178H65.9419C55.2754 178 46.5592 186.35 45.9732 196.87H94.6539V178ZM45.9604 198.87C46.416 209.512 55.1877 218 65.9419 218H94.6539V217.951V198.87H45.9604ZM96.6539 218H126.016C136.771 218 145.542 209.512 145.998 198.87H145.895H96.6539V217.951V218ZM145.985 196.87C145.399 186.35 136.683 178 126.016 178H96.6539V196.87H145.895H145.985Z" fill="#262626"/>
<path fill-rule="evenodd" clip-rule="evenodd" d="M244.268 33H233.574C229.156 33 225.574 36.5817 225.574 41V51.87H244.268V33ZM225.574 53.87V65C225.574 69.4183 229.156 73 233.574 73H244.268V72.9515V53.87H225.574ZM246.268 73H257.574C261.992 73 265.574 69.4183 265.574 65V53.87H246.268V72.9515V73ZM265.574 51.87V41C265.574 36.5817 261.992 33 257.574 33H246.268V51.87H265.574Z" fill="#262626"/>
<path fill-rule="evenodd" clip-rule="evenodd" d="M250.036 107.223C249.862 106.651 249.622 106.139 249.316 105.687C249.016 105.228 248.654 104.836 248.23 104.512C247.812 104.187 247.332 103.943 246.789 103.781C246.246 103.611 245.654 103.527 245.014 103.527C243.865 103.527 242.842 103.82 241.944 104.406C241.046 104.992 240.339 105.853 239.824 106.99C239.316 108.12 239.062 109.496 239.062 111.12C239.062 112.758 239.316 114.146 239.824 115.283C240.332 116.419 241.039 117.284 241.944 117.877C242.849 118.463 243.9 118.756 245.097 118.756C246.183 118.756 247.123 118.545 247.916 118.121C248.717 117.697 249.333 117.097 249.765 116.32C250.177 115.571 250.393 114.699 250.411 113.705H245.484V110.633H254.161V113.239C254.161 115.095 253.771 116.702 252.991 118.057C252.211 119.413 251.139 120.458 249.775 121.192C248.411 121.919 246.844 122.283 245.076 122.283C243.106 122.283 241.376 121.835 239.887 120.938C238.404 120.034 237.245 118.753 236.41 117.094C235.581 115.427 235.167 113.45 235.167 111.163C235.167 109.412 235.411 107.848 235.898 106.471C236.392 105.094 237.081 103.926 237.966 102.965C238.85 101.998 239.887 101.264 241.077 100.763C242.268 100.254 243.562 100 244.961 100C246.145 100 247.248 100.177 248.271 100.53C249.295 100.876 250.203 101.37 250.997 102.012C251.797 102.655 252.455 103.417 252.97 104.3C253.485 105.182 253.823 106.157 253.983 107.223H250.036ZM200.074 100.297V121.987H203.948V114.658H208.041C209.691 114.658 211.08 114.351 212.207 113.736C213.335 113.115 214.188 112.264 214.766 111.184C215.343 110.104 215.632 108.868 215.632 107.477C215.632 106.1 215.343 104.872 214.766 103.792C214.195 102.704 213.349 101.85 212.228 101.229C211.115 100.607 209.736 100.297 208.093 100.297H200.074ZM203.948 111.427H207.519C208.48 111.427 209.266 111.258 209.879 110.919C210.492 110.58 210.944 110.114 211.236 109.521C211.536 108.928 211.685 108.247 211.685 107.477C211.685 106.708 211.536 106.03 211.236 105.444C210.944 104.858 210.488 104.402 209.868 104.077C209.256 103.746 208.466 103.58 207.498 103.58H203.948V111.427ZM214.637 121.987H218.772L220.54 116.638H228.58L230.352 121.987H234.487L226.948 100.297H222.165L214.637 121.987ZM227.534 113.482L224.64 104.745H224.473L221.584 113.482H227.534ZM257.318 100.297V121.987H271.31V118.693H261.192V112.773H270.506V109.479H261.192V103.59H271.227V100.297H257.318ZM263.47 126.717C264.493 126.724 265.489 126.908 266.456 127.268C267.431 127.621 268.308 128.2 269.087 129.005C269.867 129.802 270.487 130.872 270.946 132.214C271.405 133.555 271.635 135.214 271.635 137.191C271.642 139.055 271.447 140.722 271.05 142.19C270.661 143.652 270.1 144.887 269.369 145.897C268.638 146.907 267.758 147.676 266.728 148.206C265.697 148.735 264.538 149 263.251 149C261.9 149 260.703 148.732 259.659 148.195C258.621 147.658 257.783 146.924 257.142 145.992C256.502 145.06 256.108 143.994 255.962 142.794H259.773C259.968 143.655 260.365 144.34 260.964 144.848C261.569 145.35 262.332 145.6 263.251 145.6C264.733 145.6 265.875 144.947 266.675 143.641C267.476 142.335 267.876 140.52 267.876 138.197H267.73C267.389 138.819 266.947 139.355 266.404 139.807C265.861 140.252 265.245 140.594 264.556 140.834C263.874 141.075 263.15 141.195 262.384 141.195C261.131 141.195 260.003 140.891 259.001 140.284C258.005 139.677 257.215 138.843 256.631 137.784C256.053 136.725 255.76 135.514 255.753 134.152C255.753 132.74 256.074 131.472 256.714 130.35C257.361 129.22 258.263 128.33 259.418 127.681C260.574 127.024 261.924 126.703 263.47 126.717ZM263.48 129.894C262.728 129.894 262.05 130.081 261.444 130.455C260.845 130.823 260.372 131.324 260.024 131.959C259.683 132.588 259.512 133.29 259.512 134.067C259.519 134.837 259.69 135.536 260.024 136.164C260.365 136.792 260.828 137.29 261.413 137.657C262.004 138.024 262.68 138.208 263.438 138.208C264.002 138.208 264.528 138.099 265.015 137.88C265.502 137.661 265.927 137.357 266.289 136.969C266.658 136.573 266.943 136.125 267.145 135.624C267.354 135.123 267.455 134.593 267.448 134.035C267.448 133.294 267.274 132.609 266.926 131.981C266.585 131.352 266.115 130.847 265.516 130.466C264.925 130.085 264.246 129.894 263.48 129.894ZM253.295 134.332H249.39C249.279 133.682 249.073 133.107 248.774 132.605C248.475 132.097 248.102 131.666 247.657 131.313C247.211 130.96 246.703 130.696 246.132 130.519C245.568 130.335 244.959 130.244 244.305 130.244C243.142 130.244 242.112 130.54 241.214 131.133C240.316 131.719 239.613 132.581 239.105 133.717C238.597 134.847 238.343 136.227 238.343 137.858C238.343 139.518 238.597 140.916 239.105 142.052C239.62 143.182 240.323 144.036 241.214 144.615C242.112 145.187 243.139 145.473 244.294 145.473C244.935 145.473 245.534 145.389 246.09 145.219C246.654 145.043 247.159 144.785 247.604 144.446C248.057 144.107 248.436 143.69 248.743 143.196C249.056 142.702 249.272 142.137 249.39 141.502L253.295 141.523C253.149 142.554 252.832 143.521 252.345 144.425C251.865 145.329 251.235 146.126 250.455 146.818C249.675 147.503 248.763 148.04 247.719 148.428C246.675 148.809 245.516 149 244.242 149C242.363 149 240.685 148.559 239.209 147.676C237.734 146.794 236.571 145.519 235.722 143.853C234.873 142.187 234.448 140.188 234.448 137.858C234.448 135.521 234.876 133.523 235.732 131.864C236.588 130.198 237.754 128.923 239.23 128.041C240.706 127.158 242.377 126.717 244.242 126.717C245.433 126.717 246.539 126.886 247.563 127.225C248.586 127.564 249.498 128.062 250.298 128.719C251.099 129.368 251.757 130.166 252.272 131.112C252.794 132.051 253.135 133.124 253.295 134.332ZM282.752 127.013H274.733V148.703H278.607V140.76H282.549L286.751 148.703H291.074L286.449 140.116C286.588 140.06 286.724 139.999 286.856 139.934C287.983 139.376 288.836 138.589 289.414 137.573C289.999 136.549 290.291 135.341 290.291 133.95C290.291 132.567 290.002 131.356 289.424 130.318C288.854 129.273 288.008 128.461 286.887 127.882C285.773 127.303 284.395 127.013 282.752 127.013ZM278.607 137.498H282.178C283.139 137.498 283.925 137.364 284.538 137.096C285.15 136.821 285.603 136.422 285.895 135.899C286.194 135.37 286.344 134.72 286.344 133.95C286.344 133.181 286.194 132.524 285.895 131.981C285.596 131.43 285.14 131.013 284.527 130.731C283.915 130.441 283.125 130.297 282.157 130.297H278.607V137.498ZM274.537 100.24H290.464V121.986H274.537V100.24ZM231.657 126.957H200.109V148.704H231.657V126.957Z" fill="#262626"/>
<path fill-rule="evenodd" clip-rule="evenodd" d="M211.074 177.14C207.373 177.843 204.574 181.094 204.574 185V196H211.074V177.14ZM204.574 198V209C204.574 212.906 207.373 216.157 211.074 216.86V198H204.574ZM213.074 217H236.574C240.992 217 244.574 213.418 244.574 209V198H213.074V217ZM244.574 196V185C244.574 180.582 240.992 177 236.574 177H213.074V196H244.574Z" fill="#262626"/>
<path fill-rule="evenodd" clip-rule="evenodd" d="M271.074 177H254.574C250.156 177 246.574 180.582 246.574 185V186H271.074V177ZM246.574 188V209C246.574 213.418 250.156 217 254.574 217H271.074V188H246.574ZM273.074 217H278.574C282.992 217 286.574 213.418 286.574 209V188H273.074V217ZM286.574 186V185C286.574 180.582 282.992 177 278.574 177H273.074V186H286.574Z" fill="#262626"/>
<path fill-rule="evenodd" clip-rule="evenodd" d="M81.1684 251.583C77.9564 255.131 76 259.837 76 265C76 270.097 77.9066 274.749 81.0455 278.281L94.456 264.87L81.1684 251.583ZM82.5826 250.168L95.8702 263.456L109.281 250.046C105.749 246.907 101.097 245 96 245C90.837 245 86.1309 246.956 82.5826 250.168ZM110.708 251.447L97.2844 264.87L110.777 278.363L110.832 278.417C114.044 274.869 116 270.163 116 265C116 259.771 113.993 255.01 110.708 251.447ZM109.417 279.832L109.363 279.777L95.8702 266.284L82.4468 279.708C86.0104 282.993 90.7708 285 96 285C101.163 285 105.869 283.044 109.417 279.832Z" fill="#262626"/>
</svg>
